app/client/src/assets/icons/blueprintjs/16px/timeline-events.svg

<svg xmlns="http://www.w3.org/2000/svg" xml:space="preserve" viewBox="0 0 16 16"><path d="M8 11H7v1h1v-1zm-4 0H3v1h1v-1zm7-8c.6 0 1-.5 1-1V1c0-.5-.4-1-1-1s-1 .5-1 1v1c0 .5.5 1 1 1zM4 3c.5 0 1-.5 1-1V1c0-.5-.5-1-1-1S3 .5 3 1v1c0 .5.5 1 1 1zm10-2h-1v1c0 1.1-.9 2-2 2s-2-.9-2-2V1H6v1c0 1.1-.9 2-2 2s-2-.9-2-2V1H1c-.5 0-1 .5-1 1v12c0 .5.5 1 1 1h13c.6 0 1-.5 1-1V2c0-.5-.4-1-1-1zM5 13H2v-3h3v3zm0-4H2V6h3v3zm4 4H6v-3h3v3zm0-4H6V6h3v3zm4 4h-3v-3h3v3zm0-4h-3V6h3v3zm-1-2h-1v1h1V7z"/></svg>

<?xml version="1.0" encoding="utf-8"?>
<!-- Generator: Adobe Illustrator 17.1.0, SVG Export Plug-In . SVG Version: 6.00 Build 0)  -->
<!DOCTYPE svg PUBLIC "-//W3C//DTD SVG 1.1//EN" "http://www.w3.org/Graphics/SVG/1.1/DTD/svg11.dtd">
<svg version="1.1" id="Layer_1" xmlns:sketch="http://www.bohemiancoding.com/sketch/ns"
	 xmlns="http://www.w3.org/2000/svg" xmlns:xlink="http://www.w3.org/1999/xlink" x="0px" y="0px" viewBox="0 0 16 16"
	 enable-background="new 0 0 16 16" xml:space="preserve">
<title>Shape</title>
<desc>Created with Sketch.</desc>
<g id="Page-1" sketch:type="MSPage">
	<g id="Artboard-1" sketch:type="MSArtboardGroup">
		<path id="Shape" sketch:type="MSShapeGroup" d="M8,11H7v1h1V11L8,11z M4,11H3v1h1V11L4,11z M11,3c0.6,0,1-0.5,1-1V1
			c0-0.5-0.4-1-1-1s-1,0.5-1,1v1C10,2.5,10.5,3,11,3L11,3z M4,3c0.5,0,1-0.5,1-1V1c0-0.5-0.5-1-1-1S3,0.5,3,1v1C3,2.5,3.5,3,4,3L4,3
			z M14,1h-1v1c0,1.1-0.9,2-2,2S9,3.1,9,2V1H6v1c0,1.1-0.9,2-2,2S2,3.1,2,2V1H1C0.5,1,0,1.5,0,2v12c0,0.5,0.5,1,1,1h13
			c0.6,0,1-0.5,1-1V2C15,1.5,14.6,1,14,1L14,1z M5,13H2v-3h3V13L5,13z M5,9H2V6h3V9L5,9z M9,13H6v-3h3V13L9,13z M9,9H6V6h3V9L9,9z
			 M13,13h-3v-3h3V13L13,13z M13,9h-3V6h3V9L13,9z M12,7h-1v1h1V7L12,7z"/>
	</g>
</g>
</svg>
